X: 2
T: the Blue Ball
C: S\'ean Ryan
F: https://thesession.org/tunes/4444
R: jig
M: 6/8
L: 1/8
K: Emin
|:\
EBA GFD | EAB DEG | EAB DEG | FFF EDB |\
EBA GFD | EAB DEG | FGF ABD | FED [1 E2D :|[2 E3 ||
[|\
B2E GFE | FFE BDE | A2G2FE | FGF FED |\
B2E GFE | FFE BDE | FFE BDE | FED E3 |
[|\
B2E GFE | FFE BDE | A2G2BG | ^cAc dcA |\
B2E GFE | FFE BDE | FFE BDE | FED E3 |]
